X: 2
T: The Antrim Rose
R: reel
M: 4/4
L: 1/8
K: Dmaj
f~d3 edcd|A~d3 A~d3|f2~f2 edBd|Adgf e2de|f~d3 edcd|A~d3 A~d3|f2~a2 afeg|fedB A2GF||~e3f edBd|e2df efgf|~e3f edBd|A~d3 defd|~e3f edBd|e2df efge|f~a3 afeg|fedB A3||


Tune 3049	Setting 3049

